assets/location.svg

<svg height="36" viewBox="0 0 36 36" width="36" xmlns="http://www.w3.org/2000/svg"><path d="m42.9296875 60.859375c9.8085937 0 17.9296875-8.1210938 17.9296875-17.9296875 0-9.7910156-8.1386719-17.9296875-17.9472656-17.9296875-9.7910156 0-17.9121094 8.1386719-17.9121094 17.9296875 0 9.8085937 8.1386719 17.9296875 17.9296875 17.9296875zm6.4160156-8.9121094-5.9941406-5.9941406c-.28125-.2988281-.6328125-.28125-.9140625 0l-6.0117188 5.9941406c-1.0898437 1.0898438-2.3378906.1054688-1.8984374-1.0371094l7.1015624-18.1054687c.4746094-1.1777344 2.0390626-1.2128906 2.5136719-.0351563l7.1015625 18.140625c.4570313 1.1425782-.8085937 2.1269532-1.8984375 1.0371094z" fill="#fff" opacity=".5" transform="translate(-25 -25)"/></svg>

<?xml version="1.0" encoding="UTF-8"?>
<svg width="36px" height="36px" viewBox="0 0 36 36" version="1.1" xmlns="http://www.w3.org/2000/svg" xmlns:xlink="http://www.w3.org/1999/xlink">
    <title>􀋖</title>
    <g id="Web" stroke="none" stroke-width="1" fill="none" fill-rule="evenodd" opacity="0.5">
        <g id="Artboard" transform="translate(-1003.000000, -1556.000000)" fill="#FFFFFF" fill-rule="nonzero">
            <g id="Group-4" transform="translate(978.000000, 1531.000000)">
                <path d="M42.9296875,60.859375 C52.7382812,60.859375 60.859375,52.7382812 60.859375,42.9296875 C60.859375,33.1386719 52.7207031,25 42.9121094,25 C33.1210938,25 25,33.1386719 25,42.9296875 C25,52.7382812 33.1386719,60.859375 42.9296875,60.859375 Z M49.3457031,51.9472656 L43.3515625,45.953125 C43.0703125,45.6542969 42.71875,45.671875 42.4375,45.953125 L36.4257812,51.9472656 C35.3359375,53.0371094 34.0878906,52.0527344 34.5273438,50.9101562 L41.6289062,32.8046875 C42.1035156,31.6269531 43.6679688,31.5917969 44.1425781,32.7695312 L51.2441406,50.9101562 C51.7011719,52.0527344 50.4355469,53.0371094 49.3457031,51.9472656 Z" id="􀋖"></path>
            </g>
        </g>
    </g>
</svg>
